images/3234670.svg

<?xml version="1.0" encoding="UTF-8"?>
<svg xmlns="http://www.w3.org/2000/svg" xmlns:xlink="http://www.w3.org/1999/xlink" width="300pt" height="300pt" viewBox="0 0 300 300" version="1.1">
<defs>
<g>
<symbol overflow="visible" id="glyph0-0">
<path style="stroke:none;" d="M 0.453125 1.59375 L 0.453125 -6.34375 L 4.953125 -6.34375 L 4.953125 1.59375 Z M 0.953125 1.09375 L 4.453125 1.09375 L 4.453125 -5.84375 L 0.953125 -5.84375 Z M 0.953125 1.09375 "/>
</symbol>
<symbol overflow="visible" id="glyph0-1">
<path style="stroke:none;" d="M 0.890625 -6.5625 L 2.078125 -6.5625 L 4.984375 -1.078125 L 4.984375 -6.5625 L 5.84375 -6.5625 L 5.84375 0 L 4.65625 0 L 1.75 -5.484375 L 1.75 0 L 0.890625 0 Z M 0.890625 -6.5625 "/>
</symbol>
<symbol overflow="visible" id="glyph0-2">
<path style="stroke:none;" d="M 3.546875 -5.953125 C 2.898438 -5.953125 2.382812 -5.710938 2 -5.234375 C 1.625 -4.753906 1.4375 -4.101562 1.4375 -3.28125 C 1.4375 -2.445312 1.625 -1.789062 2 -1.3125 C 2.382812 -0.832031 2.898438 -0.59375 3.546875 -0.59375 C 4.191406 -0.59375 4.703125 -0.832031 5.078125 -1.3125 C 5.453125 -1.789062 5.640625 -2.445312 5.640625 -3.28125 C 5.640625 -4.101562 5.453125 -4.753906 5.078125 -5.234375 C 4.703125 -5.710938 4.191406 -5.953125 3.546875 -5.953125 Z M 3.546875 -6.6875 C 4.460938 -6.6875 5.195312 -6.375 5.75 -5.75 C 6.300781 -5.132812 6.578125 -4.3125 6.578125 -3.28125 C 6.578125 -2.238281 6.300781 -1.410156 5.75 -0.796875 C 5.195312 -0.179688 4.460938 0.125 3.546875 0.125 C 2.617188 0.125 1.878906 -0.179688 1.328125 -0.796875 C 0.773438 -1.410156 0.5 -2.238281 0.5 -3.28125 C 0.5 -4.3125 0.773438 -5.132812 1.328125 -5.75 C 1.878906 -6.375 2.617188 -6.6875 3.546875 -6.6875 Z M 3.546875 -6.6875 "/>
</symbol>
<symbol overflow="visible" id="glyph0-3">
<path style="stroke:none;" d="M 5.796875 -6.0625 L 5.796875 -5.125 C 5.492188 -5.394531 5.171875 -5.597656 4.828125 -5.734375 C 4.492188 -5.878906 4.140625 -5.953125 3.765625 -5.953125 C 3.015625 -5.953125 2.4375 -5.722656 2.03125 -5.265625 C 1.632812 -4.804688 1.4375 -4.144531 1.4375 -3.28125 C 1.4375 -2.414062 1.632812 -1.753906 2.03125 -1.296875 C 2.4375 -0.835938 3.015625 -0.609375 3.765625 -0.609375 C 4.140625 -0.609375 4.492188 -0.675781 4.828125 -0.8125 C 5.171875 -0.945312 5.492188 -1.15625 5.796875 -1.4375 L 5.796875 -0.5 C 5.484375 -0.289062 5.15625 -0.132812 4.8125 -0.03125 C 4.46875 0.0703125 4.097656 0.125 3.703125 0.125 C 2.710938 0.125 1.929688 -0.175781 1.359375 -0.78125 C 0.785156 -1.394531 0.5 -2.226562 0.5 -3.28125 C 0.5 -4.332031 0.785156 -5.160156 1.359375 -5.765625 C 1.929688 -6.378906 2.710938 -6.6875 3.703125 -6.6875 C 4.097656 -6.6875 4.46875 -6.632812 4.8125 -6.53125 C 5.164062 -6.425781 5.492188 -6.269531 5.796875 -6.0625 Z M 5.796875 -6.0625 "/>
</symbol>
<symbol overflow="visible" id="glyph0-4">
<path style="stroke:none;" d="M 0.84375 -6.84375 L 1.65625 -6.84375 L 1.65625 0 L 0.84375 0 Z M 0.84375 -6.84375 "/>
</symbol>
</g>
</defs>
<g id="surface29173">
<rect x="0" y="0" width="300" height="300" style="fill:rgb(100%,100%,100%);fill-opacity:1;stroke:none;"/>
<path style="fill:none;stroke-width:1.2;stroke-linecap:butt;stroke-linejoin:miter;stroke:rgb(0%,0%,0%);stroke-opacity:1;stroke-miterlimit:10;" d="M 159.6875 187.425781 L 155.589844 177.316406 "/>
<path style="fill:none;stroke-width:1.2;stroke-linecap:butt;stroke-linejoin:miter;stroke:rgb(0%,0%,100%);stroke-opacity:1;stroke-miterlimit:10;" d="M 155.589844 177.316406 L 151.488281 167.207031 "/>
<path style="fill:none;stroke-width:1.2;stroke-linecap:butt;stroke-linejoin:miter;stroke:rgb(0%,0%,100%);stroke-opacity:1;stroke-miterlimit:10;" d="M 151.488281 167.207031 L 158.195312 158.605469 "/>
<path style="fill:none;stroke-width:1.2;stroke-linecap:butt;stroke-linejoin:miter;stroke:rgb(0%,0%,0%);stroke-opacity:1;stroke-miterlimit:10;" d="M 158.195312 158.605469 L 164.902344 150 "/>
<path style="fill:none;stroke-width:1.2;stroke-linecap:butt;stroke-linejoin:miter;stroke:rgb(0%,0%,0%);stroke-opacity:1;stroke-miterlimit:10;" d="M 129.882812 164.195312 L 140.683594 165.703125 "/>
<path style="fill:none;stroke-width:1.2;stroke-linecap:butt;stroke-linejoin:miter;stroke:rgb(0%,0%,100%);stroke-opacity:1;stroke-miterlimit:10;" d="M 140.683594 165.703125 L 151.488281 167.207031 "/>
<path style=" stroke:none;fill-rule:nonzero;fill:rgb(100%,100%,100%);fill-opacity:1;" d="M 148.488281 161.707031 L 155.488281 161.707031 L 155.488281 172.707031 L 148.488281 172.707031 Z M 148.488281 161.707031 "/>
<g style="fill:rgb(0%,0%,100%);fill-opacity:1;">
  <use xlink:href="#glyph0-1" x="148.488281" y="170.370117"/>
</g>
<path style="fill:none;stroke-width:1.2;stroke-linecap:butt;stroke-linejoin:miter;stroke:rgb(0%,0%,0%);stroke-opacity:1;stroke-miterlimit:10;" d="M 164.902344 150 L 175.707031 151.503906 "/>
<path style="fill:none;stroke-width:1.2;stroke-linecap:butt;stroke-linejoin:miter;stroke:rgb(0%,0%,100%);stroke-opacity:1;stroke-miterlimit:10;" d="M 175.707031 151.503906 L 186.511719 153.011719 "/>
<path style="fill:none;stroke-width:1.2;stroke-linecap:butt;stroke-linejoin:miter;stroke:rgb(0%,0%,0%);stroke-opacity:1;stroke-miterlimit:10;" d="M 167.773438 145.214844 L 176.414062 146.421875 "/>
<path style="fill:none;stroke-width:1.2;stroke-linecap:butt;stroke-linejoin:miter;stroke:rgb(0%,0%,100%);stroke-opacity:1;stroke-miterlimit:10;" d="M 176.414062 146.421875 L 185.058594 147.625 "/>
<path style="fill:none;stroke-width:1.2;stroke-linecap:butt;stroke-linejoin:miter;stroke:rgb(0%,0%,0%);stroke-opacity:1;stroke-miterlimit:10;" d="M 156.707031 129.78125 L 164.902344 150 "/>
<path style="fill:none;stroke-width:1.2;stroke-linecap:butt;stroke-linejoin:miter;stroke:rgb(0%,0%,100%);stroke-opacity:1;stroke-miterlimit:10;" d="M 186.511719 153.011719 L 193.21875 144.40625 "/>
<path style="fill:none;stroke-width:1.2;stroke-linecap:butt;stroke-linejoin:miter;stroke:rgb(0%,0%,0%);stroke-opacity:1;stroke-miterlimit:10;" d="M 193.21875 144.40625 L 199.921875 135.804688 "/>
<path style=" stroke:none;fill-rule:nonzero;fill:rgb(100%,100%,100%);fill-opacity:1;" d="M 183.511719 147.511719 L 190.511719 147.511719 L 190.511719 158.511719 L 183.511719 158.511719 Z M 183.511719 147.511719 "/>
<g style="fill:rgb(0%,0%,100%);fill-opacity:1;">
  <use xlink:href="#glyph0-1" x="183.511719" y="156.174805"/>
</g>
<path style="fill:none;stroke-width:1.2;stroke-linecap:butt;stroke-linejoin:miter;stroke:rgb(0%,0%,0%);stroke-opacity:1;stroke-miterlimit:10;" d="M 199.921875 135.804688 L 195.824219 125.695312 "/>
<path style="fill:none;stroke-width:1.2;stroke-linecap:butt;stroke-linejoin:miter;stroke:rgb(0%,0%,100%);stroke-opacity:1;stroke-miterlimit:10;" d="M 195.824219 125.695312 L 191.726562 115.585938 "/>
<path style="fill:none;stroke-width:1.2;stroke-linecap:butt;stroke-linejoin:miter;stroke:rgb(0%,0%,0%);stroke-opacity:1;stroke-miterlimit:10;" d="M 194.347656 135.710938 L 191.066406 127.621094 "/>
<path style="fill:none;stroke-width:1.2;stroke-linecap:butt;stroke-linejoin:miter;stroke:rgb(0%,0%,100%);stroke-opacity:1;stroke-miterlimit:10;" d="M 191.066406 127.621094 L 187.789062 119.535156 "/>
<path style="fill:none;stroke-width:1.2;stroke-linecap:butt;stroke-linejoin:miter;stroke:rgb(0%,0%,0%);stroke-opacity:1;stroke-miterlimit:10;" d="M 199.921875 135.804688 L 210.726562 137.308594 "/>
<path style="fill:none;stroke-width:1.2;stroke-linecap:butt;stroke-linejoin:miter;stroke:rgb(0%,0%,100%);stroke-opacity:1;stroke-miterlimit:10;" d="M 210.726562 137.308594 L 221.53125 138.816406 "/>
<path style="fill:none;stroke-width:1.2;stroke-linecap:butt;stroke-linejoin:miter;stroke:rgb(0%,0%,100%);stroke-opacity:1;stroke-miterlimit:10;" d="M 191.726562 115.585938 L 180.921875 114.078125 "/>
<path style="fill:none;stroke-width:1.2;stroke-linecap:butt;stroke-linejoin:miter;stroke:rgb(0%,0%,0%);stroke-opacity:1;stroke-miterlimit:10;" d="M 180.921875 114.078125 L 170.117188 112.574219 "/>
<path style=" stroke:none;fill-rule:nonzero;fill:rgb(100%,100%,100%);fill-opacity:1;" d="M 188.726562 110.085938 L 195.726562 110.085938 L 195.726562 121.085938 L 188.726562 121.085938 Z M 188.726562 110.085938 "/>
<g style="fill:rgb(0%,0%,100%);fill-opacity:1;">
  <use xlink:href="#glyph0-1" x="188.726562" y="118.749023"/>
</g>
<path style="fill:none;stroke-width:1.2;stroke-linecap:butt;stroke-linejoin:miter;stroke:rgb(0%,0%,0%);stroke-opacity:1;stroke-miterlimit:10;" d="M 170.117188 112.574219 L 156.707031 129.78125 "/>
<path style="fill:none;stroke-width:1.2;stroke-linecap:butt;stroke-linejoin:miter;stroke:rgb(0%,0%,0%);stroke-opacity:1;stroke-miterlimit:10;" d="M 172.828125 117.449219 L 162.097656 131.214844 "/>
<path style="fill:none;stroke-width:1.2;stroke-linecap:butt;stroke-linejoin:miter;stroke:rgb(0%,0%,0%);stroke-opacity:1;stroke-miterlimit:10;" d="M 156.707031 129.78125 L 145.902344 128.273438 "/>
<path style="fill:none;stroke-width:1.2;stroke-linecap:butt;stroke-linejoin:miter;stroke:rgb(0%,0%,100%);stroke-opacity:1;stroke-miterlimit:10;" d="M 145.902344 128.273438 L 135.097656 126.769531 "/>
<path style="fill:none;stroke-width:1.2;stroke-linecap:butt;stroke-linejoin:miter;stroke:rgb(0%,0%,100%);stroke-opacity:1;stroke-miterlimit:10;" d="M 135.097656 126.769531 L 128.390625 135.371094 "/>
<path style="fill:none;stroke-width:1.2;stroke-linecap:butt;stroke-linejoin:miter;stroke:rgb(0%,0%,0%);stroke-opacity:1;stroke-miterlimit:10;" d="M 128.390625 135.371094 L 121.683594 143.976562 "/>
<path style="fill:none;stroke-width:1.2;stroke-linecap:butt;stroke-linejoin:miter;stroke:rgb(0%,0%,100%);stroke-opacity:1;stroke-miterlimit:10;" d="M 137.804688 131.644531 L 132.441406 138.527344 "/>
<path style="fill:none;stroke-width:1.2;stroke-linecap:butt;stroke-linejoin:miter;stroke:rgb(0%,0%,0%);stroke-opacity:1;stroke-miterlimit:10;" d="M 132.441406 138.527344 L 127.074219 145.410156 "/>
<path style=" stroke:none;fill-rule:nonzero;fill:rgb(100%,100%,100%);fill-opacity:1;" d="M 132.097656 121.269531 L 139.097656 121.269531 L 139.097656 132.269531 L 132.097656 132.269531 Z M 132.097656 121.269531 "/>
<g style="fill:rgb(0%,0%,100%);fill-opacity:1;">
  <use xlink:href="#glyph0-1" x="132.097656" y="129.932617"/>
</g>
<path style="fill:none;stroke-width:1.2;stroke-linecap:butt;stroke-linejoin:miter;stroke:rgb(0%,0%,0%);stroke-opacity:1;stroke-miterlimit:10;" d="M 121.683594 143.976562 L 129.882812 164.195312 "/>
<path style="fill:none;stroke-width:1.2;stroke-linecap:butt;stroke-linejoin:miter;stroke:rgb(0%,0%,0%);stroke-opacity:1;stroke-miterlimit:10;" d="M 121.683594 143.976562 L 100.078125 140.964844 "/>
<path style="fill:none;stroke-width:1.2;stroke-linecap:butt;stroke-linejoin:miter;stroke:rgb(0%,0%,0%);stroke-opacity:1;stroke-miterlimit:10;" d="M 127.855469 162.617188 L 121.148438 171.222656 "/>
<path style="fill:none;stroke-width:1.2;stroke-linecap:butt;stroke-linejoin:miter;stroke:rgb(100%,0%,0%);stroke-opacity:1;stroke-miterlimit:10;" d="M 121.148438 171.222656 L 114.445312 179.824219 "/>
<path style="fill:none;stroke-width:1.2;stroke-linecap:butt;stroke-linejoin:miter;stroke:rgb(0%,0%,0%);stroke-opacity:1;stroke-miterlimit:10;" d="M 131.90625 165.773438 L 125.199219 174.378906 "/>
<path style="fill:none;stroke-width:1.2;stroke-linecap:butt;stroke-linejoin:miter;stroke:rgb(100%,0%,0%);stroke-opacity:1;stroke-miterlimit:10;" d="M 125.199219 174.378906 L 118.492188 182.980469 "/>
<path style=" stroke:none;fill-rule:nonzero;fill:rgb(100%,100%,100%);fill-opacity:1;" d="M 108.46875 175.902344 L 116.46875 175.902344 L 116.46875 186.902344 L 108.46875 186.902344 Z M 108.46875 175.902344 "/>
<g style="fill:rgb(100%,0%,0%);fill-opacity:1;">
  <use xlink:href="#glyph0-2" x="108.46875" y="184.56543"/>
</g>
<path style="fill:none;stroke-width:1.2;stroke-linecap:butt;stroke-linejoin:miter;stroke:rgb(0%,0%,0%);stroke-opacity:1;stroke-miterlimit:10;" d="M 100.078125 140.964844 L 91.878906 120.746094 "/>
<path style="fill:none;stroke-width:1.2;stroke-linecap:butt;stroke-linejoin:miter;stroke:rgb(0%,0%,0%);stroke-opacity:1;stroke-miterlimit:10;" d="M 94.5 140.871094 L 87.941406 124.695312 "/>
<path style="fill:none;stroke-width:1.2;stroke-linecap:butt;stroke-linejoin:miter;stroke:rgb(0%,0%,0%);stroke-opacity:1;stroke-miterlimit:10;" d="M 86.664062 158.171875 L 100.078125 140.964844 "/>
<path style="fill:none;stroke-width:1.2;stroke-linecap:butt;stroke-linejoin:miter;stroke:rgb(0%,0%,0%);stroke-opacity:1;stroke-miterlimit:10;" d="M 91.878906 120.746094 L 70.269531 117.734375 "/>
<path style="fill:none;stroke-width:1.2;stroke-linecap:butt;stroke-linejoin:miter;stroke:rgb(0%,0%,0%);stroke-opacity:1;stroke-miterlimit:10;" d="M 70.269531 117.734375 L 56.859375 134.941406 "/>
<path style="fill:none;stroke-width:1.2;stroke-linecap:butt;stroke-linejoin:miter;stroke:rgb(0%,0%,0%);stroke-opacity:1;stroke-miterlimit:10;" d="M 72.980469 122.609375 L 62.25 136.375 "/>
<path style="fill:none;stroke-width:1.2;stroke-linecap:butt;stroke-linejoin:miter;stroke:rgb(0%,0%,0%);stroke-opacity:1;stroke-miterlimit:10;" d="M 56.859375 134.941406 L 65.054688 155.160156 "/>
<path style="fill:none;stroke-width:1.2;stroke-linecap:butt;stroke-linejoin:miter;stroke:rgb(0%,0%,0%);stroke-opacity:1;stroke-miterlimit:10;" d="M 56.859375 134.941406 L 46.054688 133.4375 "/>
<path style="fill:none;stroke-width:1.2;stroke-linecap:butt;stroke-linejoin:miter;stroke:rgb(0%,80%,0%);stroke-opacity:1;stroke-miterlimit:10;" d="M 46.054688 133.4375 L 35.25 131.929688 "/>
<path style="fill:none;stroke-width:1.2;stroke-linecap:butt;stroke-linejoin:miter;stroke:rgb(0%,0%,0%);stroke-opacity:1;stroke-miterlimit:10;" d="M 65.054688 155.160156 L 86.664062 158.171875 "/>
<path style="fill:none;stroke-width:1.2;stroke-linecap:butt;stroke-linejoin:miter;stroke:rgb(0%,0%,0%);stroke-opacity:1;stroke-miterlimit:10;" d="M 67.925781 150.378906 L 85.210938 152.789062 "/>
<path style=" stroke:none;fill-rule:nonzero;fill:rgb(100%,100%,100%);fill-opacity:1;" d="M 25.25 126.429688 L 35.25 126.429688 L 35.25 137.429688 L 25.25 137.429688 Z M 25.25 126.429688 "/>
<g style="fill:rgb(0%,80%,0%);fill-opacity:1;">
  <use xlink:href="#glyph0-3" x="25.25" y="135.092773"/>
  <use xlink:href="#glyph0-4" x="31.763672" y="135.092773"/>
</g>
<path style="fill:none;stroke-width:1.2;stroke-linecap:butt;stroke-linejoin:miter;stroke:rgb(0%,0%,100%);stroke-opacity:1;stroke-miterlimit:10;" d="M 221.53125 138.816406 L 225.628906 148.925781 "/>
<path style="fill:none;stroke-width:1.2;stroke-linecap:butt;stroke-linejoin:miter;stroke:rgb(0%,0%,0%);stroke-opacity:1;stroke-miterlimit:10;" d="M 225.628906 148.925781 L 229.730469 159.035156 "/>
<path style="fill:none;stroke-width:1.2;stroke-linecap:butt;stroke-linejoin:miter;stroke:rgb(0%,0%,0%);stroke-opacity:1;stroke-miterlimit:10;" d="M 234.945312 121.609375 L 228.238281 130.210938 "/>
<path style="fill:none;stroke-width:1.2;stroke-linecap:butt;stroke-linejoin:miter;stroke:rgb(0%,0%,100%);stroke-opacity:1;stroke-miterlimit:10;" d="M 228.238281 130.210938 L 221.53125 138.816406 "/>
<path style=" stroke:none;fill-rule:nonzero;fill:rgb(100%,100%,100%);fill-opacity:1;" d="M 218.53125 133.316406 L 225.53125 133.316406 L 225.53125 144.316406 L 218.53125 144.316406 Z M 218.53125 133.316406 "/>
<g style="fill:rgb(0%,0%,100%);fill-opacity:1;">
  <use xlink:href="#glyph0-1" x="218.53125" y="141.979492"/>
</g>
<path style="fill:none;stroke-width:1.2;stroke-linecap:butt;stroke-linejoin:miter;stroke:rgb(0%,0%,0%);stroke-opacity:1;stroke-miterlimit:10;" d="M 229.730469 159.035156 L 251.335938 162.046875 "/>
<path style="fill:none;stroke-width:1.2;stroke-linecap:butt;stroke-linejoin:miter;stroke:rgb(0%,0%,0%);stroke-opacity:1;stroke-miterlimit:10;" d="M 251.335938 162.046875 L 258.042969 153.441406 "/>
<path style="fill:none;stroke-width:1.2;stroke-linecap:butt;stroke-linejoin:miter;stroke:rgb(100%,0%,0%);stroke-opacity:1;stroke-miterlimit:10;" d="M 258.042969 153.441406 L 264.75 144.839844 "/>
<path style="fill:none;stroke-width:1.2;stroke-linecap:butt;stroke-linejoin:miter;stroke:rgb(100%,0%,0%);stroke-opacity:1;stroke-miterlimit:10;" d="M 264.75 144.839844 L 260.652344 134.730469 "/>
<path style="fill:none;stroke-width:1.2;stroke-linecap:butt;stroke-linejoin:miter;stroke:rgb(0%,0%,0%);stroke-opacity:1;stroke-miterlimit:10;" d="M 260.652344 134.730469 L 256.554688 124.621094 "/>
<path style=" stroke:none;fill-rule:nonzero;fill:rgb(100%,100%,100%);fill-opacity:1;" d="M 260.75 139.339844 L 268.75 139.339844 L 268.75 150.339844 L 260.75 150.339844 Z M 260.75 139.339844 "/>
<g style="fill:rgb(100%,0%,0%);fill-opacity:1;">
  <use xlink:href="#glyph0-2" x="260.75" y="148.00293"/>
</g>
<path style="fill:none;stroke-width:1.2;stroke-linecap:butt;stroke-linejoin:miter;stroke:rgb(0%,0%,0%);stroke-opacity:1;stroke-miterlimit:10;" d="M 256.554688 124.621094 L 234.945312 121.609375 "/>
</g>
</svg>

<svg xmlns="http://www.w3.org/2000/svg" xmlns:xlink="http://www.w3.org/1999/xlink" width="300pt" height="300pt" viewBox="0 0 300 300"><defs><symbol overflow="visible"><path d="M.453 1.594v-7.938h4.5v7.938zm.5-.5h3.5v-6.938h-3.5zm0 0"/></symbol><symbol overflow="visible" id="a"><path d="M.89-6.563H2.08l2.906 5.485v-5.484h.86V0H4.656L1.75-5.484V0H.89zm0 0"/></symbol><symbol overflow="visible" id="b"><path d="M3.547-5.953c-.65 0-1.164.242-1.547.72-.375.48-.563 1.13-.563 1.952 0 .835.188 1.49.563 1.967.383.48.898.72 1.547.72.644 0 1.156-.24 1.53-.72.376-.476.564-1.132.564-1.968 0-.822-.187-1.474-.562-1.954-.375-.477-.887-.72-1.53-.72zm0-.734c.914 0 1.648.312 2.203.937.55.617.828 1.438.828 2.47 0 1.042-.277 1.87-.828 2.483-.555.617-1.29.922-2.203.922-.93 0-1.668-.305-2.22-.922C.774-1.41.5-2.237.5-3.28c0-1.033.273-1.853.828-2.47.55-.625 1.29-.938 2.22-.938zm0 0"/></symbol><symbol overflow="visible" id="c"><path d="M5.797-6.063v.938c-.305-.27-.625-.473-.97-.61-.335-.144-.686-.218-1.06-.218-.75 0-1.33.23-1.736.687-.397.46-.592 1.12-.592 1.985 0 .866.195 1.526.593 1.983.408.46.986.688 1.736.688.375 0 .726-.066 1.062-.203.344-.132.664-.343.97-.625V-.5c-.314.21-.642.367-.986.47-.343.1-.714.155-1.11.155-.99 0-1.772-.3-2.343-.906C.784-1.396.5-2.228.5-3.28c0-1.052.285-1.88.86-2.486.57-.613 1.35-.92 2.343-.92.395-.002.766.053 1.11.155.35.104.68.26.984.468zm0 0"/></symbol><symbol overflow="visible" id="d"><path d="M.844-6.844h.812V0H.844zm0 0"/></symbol></defs><g><path fill="#fff" d="M0 0h300v300H0z"/><path d="M159.688 187.426l-4.098-10.11" stroke-width="1.2" stroke="#000" stroke-miterlimit="10" fill="none"/><path d="M155.59 177.316l-4.102-10.11M151.488 167.207l6.707-8.602" stroke-width="1.2" stroke="#00f" stroke-miterlimit="10" fill="none"/><path d="M158.195 158.605l6.707-8.605M129.883 164.195l10.8 1.508" stroke-width="1.2" stroke="#000" stroke-miterlimit="10" fill="none"/><path d="M140.684 165.703l10.804 1.504" stroke-width="1.2" stroke="#00f" stroke-miterlimit="10" fill="none"/><path d="M148.488 161.707h7v11h-7zm0 0" fill="#fff"/><use xlink:href="#a" x="148.488" y="170.37" fill="#00f"/><path d="M164.902 150l10.805 1.504" stroke-width="1.2" stroke="#000" stroke-miterlimit="10" fill="none"/><path d="M175.707 151.504l10.805 1.508" stroke-width="1.2" stroke="#00f" stroke-miterlimit="10" fill="none"/><path d="M167.773 145.215l8.64 1.207" stroke-width="1.2" stroke="#000" stroke-miterlimit="10" fill="none"/><path d="M176.414 146.422l8.645 1.203" stroke-width="1.2" stroke="#00f" stroke-miterlimit="10" fill="none"/><path d="M156.707 129.78l8.195 20.22" stroke-width="1.2" stroke="#000" stroke-miterlimit="10" fill="none"/><path d="M186.512 153.012l6.707-8.606" stroke-width="1.2" stroke="#00f" stroke-miterlimit="10" fill="none"/><path d="M193.22 144.406l6.702-8.6" stroke-width="1.2" stroke="#000" stroke-miterlimit="10" fill="none"/><path d="M183.512 147.512h7v11h-7zm0 0" fill="#fff"/><use xlink:href="#a" x="183.512" y="156.175" fill="#00f"/><path d="M199.922 135.805l-4.098-10.11" stroke-width="1.2" stroke="#000" stroke-miterlimit="10" fill="none"/><path d="M195.824 125.695l-4.097-10.11" stroke-width="1.2" stroke="#00f" stroke-miterlimit="10" fill="none"/><path d="M194.348 135.71l-3.282-8.09" stroke-width="1.2" stroke="#000" stroke-miterlimit="10" fill="none"/><path d="M191.066 127.62l-3.277-8.085" stroke-width="1.2" stroke="#00f" stroke-miterlimit="10" fill="none"/><path d="M199.922 135.805l10.805 1.504" stroke-width="1.2" stroke="#000" stroke-miterlimit="10" fill="none"/><path d="M210.727 137.31l10.804 1.506M191.727 115.586l-10.805-1.508" stroke-width="1.2" stroke="#00f" stroke-miterlimit="10" fill="none"/><path d="M180.922 114.078l-10.805-1.504" stroke-width="1.2" stroke="#000" stroke-miterlimit="10" fill="none"/><path d="M188.727 110.086h7v11h-7zm0 0" fill="#fff"/><use xlink:href="#a" x="188.727" y="118.749" fill="#00f"/><path d="M170.117 112.574l-13.41 17.207M172.828 117.45l-10.73 13.765M156.707 129.78l-10.805-1.507" stroke-width="1.2" stroke="#000" stroke-miterlimit="10" fill="none"/><path d="M145.902 128.273l-10.804-1.503M135.098 126.77l-6.707 8.6" stroke-width="1.2" stroke="#00f" stroke-miterlimit="10" fill="none"/><path d="M128.39 135.37l-6.706 8.607" stroke-width="1.2" stroke="#000" stroke-miterlimit="10" fill="none"/><path d="M137.805 131.645l-5.364 6.882" stroke-width="1.2" stroke="#00f" stroke-miterlimit="10" fill="none"/><path d="M132.44 138.527l-5.366 6.883" stroke-width="1.2" stroke="#000" stroke-miterlimit="10" fill="none"/><path d="M132.098 121.27h7v11h-7zm0 0" fill="#fff"/><use xlink:href="#a" x="132.098" y="129.933" fill="#00f"/><path d="M121.684 143.977l8.2 20.218M121.684 143.977l-21.606-3.012M127.855 162.617l-6.707 8.606" stroke-width="1.2" stroke="#000" stroke-miterlimit="10" fill="none"/><path d="M121.148 171.223l-6.703 8.6" stroke-width="1.2" stroke="#f00" stroke-miterlimit="10" fill="none"/><path d="M131.906 165.773l-6.707 8.606" stroke-width="1.2" stroke="#000" stroke-miterlimit="10" fill="none"/><path d="M125.2 174.38l-6.708 8.6" stroke-width="1.2" stroke="#f00" stroke-miterlimit="10" fill="none"/><path d="M108.47 175.902h8v11h-8zm0 0" fill="#fff"/><use xlink:href="#b" x="108.469" y="184.565" fill="#f00"/><path d="M100.078 140.965l-8.2-20.22M94.5 140.87l-6.56-16.175M86.664 158.172l13.414-17.207M91.88 120.746l-21.61-3.012M70.27 117.734L56.86 134.94M72.98 122.61l-10.73 13.765M56.86 134.94l8.195 20.22M56.86 134.94l-10.805-1.502" stroke-width="1.2" stroke="#000" stroke-miterlimit="10" fill="none"/><path d="M46.055 133.438L35.25 131.93" stroke-width="1.2" stroke="#0c0" stroke-miterlimit="10" fill="none"/><path d="M65.055 155.16l21.61 3.012M67.926 150.38l17.285 2.41" stroke-width="1.2" stroke="#000" stroke-miterlimit="10" fill="none"/><path d="M25.25 126.43h10v11h-10zm0 0" fill="#fff"/><g fill="#0c0"><use xlink:href="#c" x="25.25" y="135.093"/><use xlink:href="#d" x="31.764" y="135.093"/></g><path d="M221.53 138.816l4.1 10.11" stroke-width="1.2" stroke="#00f" stroke-miterlimit="10" fill="none"/><path d="M225.63 148.926l4.1 10.11M234.945 121.61l-6.707 8.6" stroke-width="1.2" stroke="#000" stroke-miterlimit="10" fill="none"/><path d="M228.238 130.21l-6.707 8.606" stroke-width="1.2" stroke="#00f" stroke-miterlimit="10" fill="none"/><path d="M218.53 133.316h7v11h-7zm0 0" fill="#fff"/><use xlink:href="#a" x="218.531" y="141.979" fill="#00f"/><path d="M229.73 159.035l21.606 3.012M251.336 162.047l6.707-8.606" stroke-width="1.2" stroke="#000" stroke-miterlimit="10" fill="none"/><path d="M258.043 153.44l6.707-8.6M264.75 144.84l-4.098-10.11" stroke-width="1.2" stroke="#f00" stroke-miterlimit="10" fill="none"/><path d="M260.652 134.73l-4.097-10.11" stroke-width="1.2" stroke="#000" stroke-miterlimit="10" fill="none"/><path d="M260.75 139.34h8v11h-8zm0 0" fill="#fff"/><use xlink:href="#b" x="260.75" y="148.003" fill="#f00"/><path d="M256.555 124.62l-21.61-3.01" stroke-width="1.2" stroke="#000" stroke-miterlimit="10" fill="none"/></g></svg>
